X:1
T:Nicobar, 87.87.76.76
T:Nicobar, 87.87.76.76
T:James McGranahan, 1891
T:Public Domain Courtesy of the Cyber Hymnal™
C:James McGranahan, 1891
Z:Public Domain
Z:Courtesy of the Cyber Hymnal™
%%score ( 1 2 ) ( 3 4 )
L:1/8
Q:1/4=103
M:4/4
K:F
V:1 treble 
V:2 treble 
V:3 bass 
V:4 bass 
V:1
 [Ac]>[Ac] | [Ac]2 [GB]2 [CE]2 [Bd]2 | [Ac]4 [FA]2 [FA]>[FA] | [EA]2 [EG]2 C2 [EB]2 | %4
 [FA]6 [Fc]>[Fc] | [Fc]2 [EB]2 E2 [Ed]2 | c4 [Ac]2 [Gc]>[Gd] | [Ge]2 [Gc]2 [Fd]3 [Ec] | [Ec]6 c2 | %9
 [Af]3 [Ac] [Ge]2 [Ed]2 | [Fc]2 [FA]4 c2 | [cf]3 [Af] [Ge]2 [Gd]2 | c6 [EB]2 | %13
 [FA]2 [EB]2 [Fc]2 [Ff]2 | [Fe]2 [Fd]4 [Fd]2 | [Fc]3 [F=B] [Ed]2 [Ec]2 | F6 |] %17
V:2
 x2 | x8 | x8 | x4 C2 x2 | x8 | x4 E2 x2 | (F3 G) x4 | x8 | x6 c2 | x8 | x6 c2 | x8 | (G4 F2) x2 | %13
 x8 | x8 | x8 | F6 |] %17
V:3
 [F,C]>[F,C] | [C,C]2 [E,C]2 [G,C]2 [E,G,]2 | [F,A,]4 [F,C]2 [F,C]>[F,C] | %3
 [C,C]2 [C,B,]2 [C,E,]2 [C,D]2 | [F,C]6 [A,C]>[A,C] | [A,C]2 [G,C]2 [C,C]2 [B,C]2 | %6
 C4 [F,C]2 [E,C]>[D,=B,] | [C,C]2 [E,C]2 [G,=B,]3 [C,C] | [C,C]6 C2 | [F,C]3 [F,C] [C,C]2 [C,B,]2 | %10
 [F,A,]2 [F,C]4 C2 | [A,C]3 [F,C] [G,C]2 [G,F]2 | ([CE]2 [B,D]2 [A,C]2) [G,C]2 | %13
 [F,C]2 [G,C]2 [A,C]2 [A,C]2 | [B,C]2 B,4 [B,,B,]2 | [C,A,]3 [D,_A,] [C,G,]2 [C,B,]2 | [F,A,]6 |] %17
V:4
 x2 | x8 | x8 | x8 | x8 | x8 | (A,3 G,) x4 | x8 | x6 C2 | x8 | x6 C2 | x8 | x8 | x8 | x2 B,4 x2 | %15
 x8 | x6 |] %17

